X:1
T:Pour ung plaisir
T:Pour ung plaisir
T:Thomas Crecquilllon
C:Thomas Crecquilllon
%%score [ 1 [ 2 3 ] 4 ]
L:1/8
Q:1/4=80
M:2/2
K:C
V:1 treble nm="Soprano" snm="S"
V:2 treble-8 nm="Tenor 1" snm="T 1"
V:3 treble-8 nm="Tenor 2" snm="T 2"
V:4 bass nm="Bass" snm="B"
V:1
 z8 | z2 G2 GABG | AB c3 B/A/ B2 | A2 z c B2 A2 | GFED C2 c2 | B2 A3 G G2- | G2 F2 G4 | z4 z2 G2 | %8
w: |Pour ung plai- sir qui|si peu du- * * *|re, j'en ay re-|ceu _ _ _ _ pai-|n'et _ _ _|_ tra- vaulx,|j'en|
 GABG AB c2- | cB/A/ B2 A2 z c | B2 A2 GFED | C2 c2 B2 A2- | A2 G4 F2 | G8- | G4 z2 G2 | %15
w: ay souf- fert dou- leur trop du-|* * * * re, j'en|ay re- ceu _ _ _|_ mil- * *|* * le|maulx,|_ j'en|
 c2 B2 c2 e2- | edcB AGFE | D2 d3 c c2- | c2 B2 c2 e2 |: dBcc BG A2 | G2 c2 BGAG | %21
w: ay heu de trop|_ _ _ _ _ _ _ _|grans as- * *|* * saulx, or|dieu me doit bon- ne'a- van- tu-|re, or dieu me doit bon-|
 G F/E/ F2 G2 z G | G2 G2 G2 G2 | AB cA Bc d2- | d2 c4 B2 |[M:2/4] c2 e2 :|[M:2/2] c8 |] %27
w: ne'a- van- * tu- re, for-|tu- ne'a faict sur|moy _ _ _ _ _ _|_ _ ses|saulx, or|saulx.|
V:2
 z8 | c2 cd ecde | f2 e3 f g2 | c2 g2 g2 f2 | e6 f2 | f3 e d2 c2 | d4 e4 | z4 c2 cd | ecde f2 e2- | %9
w: |Pour ung plai- sir qui si peu|du- * * *|re, j'en ay re-|ceu pai-|n'et _ _ _|tra- vaulx,|j'en ay souf-|fert dou- leur trop du- *|
 ef g2 c2 g2 | g2 f2 e4- | e2 f2 f3 e | d2 c2 d4- | d2 d2 ecdd | e2 d2 e3 c | g4 e4 | z4 z2 d2 | %17
w: * * * re, j'en|ay re- ceu|_ mil- le _|_ _ maulx,|_ j'en ay heu de trop|grans _ _ _|as- saulx,|de|
 d2 d2 a4 | g4 e4 |: g2 ec decd | ee g3 dfe- | ec d2 B2 e2 | e2 e2 d3 e | f2 f2 g2 a2- | a2 f2 g4 | %25
w: trop grans _|as- saulx,|or- dieu me doit- bon- ne'a- van-|tu- re, or dieu me doit|_ bon- ne'a- van- tu-|re, for- tu- ne'a|faict sur moy ses|_ _ _|
[M:2/4] e4 :|[M:2/2] e8 |] %27
w: saulx,|saulx.|
V:3
 z2 G2 GABG | AB c4 B2 | cccd ecde | f2 ee d2 c2 | B2 c4 A2 | d3 c B2 AG | A4 z2 G2 | GABG AB c2- | %8
w: Pour ung plai- sir qui|si peu du- *|re, pour ung plai- sir qui si peu|du- re, j'en ay re-|ceu pai- n'et|tra- * * * *|vaulx, j'en|ay souf- fert dou- leur trop du-|
 c2 B2 cccd | ecde f2 ee | d2 c2 B2 c2- | c2 A2 d3 c | B2 AG A4 | G4 z2 G2 | c2 B2 c2 e2 | %15
w: * re j'en ay souf- fert|dou- leur trop du- * re, j'en|ay re- ceu mil-||* * * le|maulx, j'en|ay heu de trop|
 e2 d2 c4 | z2 c2 f2 f2 | f2 g2 e2 f2 | d4 c4 |: z8 | z2 e2 dBcc | BG A2 G2 c2 | c2 c2 B2 B2 | %23
w: grans as- saulx,|j'en ay heu|de trop grans _|as- saulx,||or dieu me doit bon-|ne'a- van- tu- re, for-|tu- ne'a faict sur|
 c4 d2 f2- | fedc d4 |[M:2/4] c4 :|[M:2/2] c8 |] %27
w: moy _ _|_ _ _ _ ses|saulx,|saulx.|
V:4
 C,2 C,D, E,C,D,E, | F,2 C,4 G,2 | F,2 A,4 G,2 | F,2 z C, G,2 A,2 | E,2 A,3 G,F,E, | %5
w: Pour ung plai- sir qui si peu|du- * *||re, j'en ay re-|ceu pai- * * *|
 D,2 F,2 G,2 E,2 | D,4 C,2 C,D, | E,C,D,E, F,2 C,2- | C,2 G,2 F,2 A,2- | A,2 G,2 F,2 z C, | %10
w: n'et _ _ tra|vaulx, j'en ay souf-|fert dou- leur trop du- *|* re, trop du-|* * re, j'en|
 G,2 A,2 E,2 A,2- | A,G,F,E, D,2 F,2 | G,2 E,2 D,4 | z2 G,2 C2 B,2 | CC,G,G, C,2 C2 | %15
w: ay re- ceu mil-||* le maulx,|j'en ay heu|de trop grans as- saulx, j'en|
 C2 G,2 A,3 B, | CB,A,G, F,2 B,2- |"^b" B,2 G,2 A,2 F,2 | G,4 C,2 C2 |: B,G,A,A, G,E, F,2 | %20
w: ay heu de trop|grans _ _ _ _ _|_ _ _ _|as- saulx, or|dieu me doit- bon- ne'a- van tu-|
 E,2 C,2 G,G,F,D, | E,E, D,2 E,2 C,2 | C,D,E,F, G,2 G,2 | F,2 A,2 G,2 F,2 | A,4 G,4 | %25
w: re, or dieu me doit bon-|ne'a- van- tu- re, for-|tu- * * * * ne'a|faict sur moy _|_ ses|
[M:2/4] C,2 C2 :|[M:2/2] C,8 |] %27
w: saulx, or|saulx.|

